assets/img/Секция header/Ватс ап.svg

<svg width="20" height="19" viewBox="0 0 20 19" fill="none" xmlns="http://www.w3.org/2000/svg">
<path d="M17.0865 2.76114C15.2064 0.981431 12.706 0.000942476 10.042 0C4.55332 0 0.0857299 4.22323 0.0837362 9.41439C0.0830716 11.0738 0.541627 12.6936 1.41288 14.1211L0 19L5.27904 17.6909C6.73346 18.4411 8.3713 18.8363 10.0377 18.837H10.0417C15.5301 18.837 19.9977 14.6131 20 9.42225C20.0017 6.90615 18.9669 4.54085 17.0865 2.76114ZM10.0424 17.2467H10.039C8.55372 17.2461 7.09698 16.8687 5.82631 16.1559L5.52393 15.9863L2.39113 16.7632L3.22717 13.8754L3.03045 13.5792C2.20206 12.3332 1.76444 10.8934 1.76511 9.41471C1.76677 5.10005 5.48007 1.58996 10.0454 1.58996C12.2561 1.59058 14.3342 2.40583 15.8969 3.88489C17.4597 5.36394 18.3196 7.32995 18.319 9.42099C18.3173 13.7363 14.6043 17.2467 10.0424 17.2467Z" fill="#111111"/>
<path d="M14.5824 11.3859C14.3335 11.2681 13.1103 10.6991 12.8821 10.6206C12.6541 10.5421 12.488 10.5028 12.3222 10.7384C12.1563 10.974 11.6795 11.5037 11.5343 11.6608C11.3891 11.8178 11.2439 11.8373 10.9953 11.7195C10.7465 11.6017 9.94464 11.3535 8.9943 10.5518C8.25463 9.92787 7.7552 9.15755 7.60999 8.92225C7.46478 8.68663 7.59438 8.5594 7.71898 8.44221C7.83096 8.33666 7.96787 8.16733 8.09214 8.03004C8.21642 7.89275 8.25795 7.79442 8.34103 7.63766C8.4241 7.48058 8.38256 7.34329 8.32042 7.22548C8.25829 7.10767 7.76052 5.94968 7.55317 5.47876C7.35114 5.02008 7.14612 5.08229 6.99327 5.07506C6.84839 5.06815 6.68225 5.06689 6.51644 5.06689C6.35062 5.06689 6.08114 5.12564 5.85286 5.36126C5.62491 5.59688 4.98193 6.16582 4.98193 7.32381C4.98193 8.4818 5.87346 9.60052 5.99807 9.75728C6.12234 9.91436 7.75255 12.2903 10.2487 13.3095C10.8425 13.552 11.3057 13.6965 11.6672 13.8049C12.2633 13.984 12.8056 13.9588 13.2346 13.8982C13.7128 13.8307 14.7067 13.3293 14.914 12.7798C15.1213 12.2303 15.1213 11.7591 15.0592 11.6611C14.9971 11.5628 14.8313 11.5037 14.5824 11.3859Z" fill="#111111"/>
</svg>

<svg xmlns="http://www.w3.org/2000/svg" width="20" height="19" fill="none"><path fill="#111" d="M17.09 2.76A10.19 10.19 0 0 0 10.04 0C4.55 0 .1 4.22.08 9.41a9 9 0 0 0 1.33 4.71L0 19l5.28-1.3a10.4 10.4 0 0 0 4.76 1.14c5.49 0 9.96-4.23 9.96-9.42a9.1 9.1 0 0 0-2.91-6.66Zm-7.05 14.49a8.63 8.63 0 0 1-4.21-1.1l-.3-.16-3.14.77.84-2.88-.2-.3A7.5 7.5 0 0 1 1.77 9.4c0-4.31 3.71-7.82 8.28-7.82 2.2 0 4.28.82 5.85 2.3a7.57 7.57 0 0 1 2.42 5.53c0 4.32-3.72 7.83-8.28 7.83Z"/><path fill="#111" d="M14.58 11.39c-.25-.12-1.47-.7-1.7-.77-.23-.08-.4-.12-.56.12-.16.23-.64.76-.79.92-.14.16-.29.18-.53.06-.25-.12-1.06-.37-2-1.17A7.18 7.18 0 0 1 7.6 8.92c-.15-.23-.02-.36.1-.48.12-.1.26-.27.38-.41.13-.14.17-.24.25-.4.08-.15.04-.29-.02-.4l-.77-1.75c-.2-.46-.4-.4-.56-.4l-.47-.01a.94.94 0 0 0-.67.3c-.23.23-.87.8-.87 1.95 0 1.16.9 2.28 1.02 2.44.12.15 1.75 2.53 4.25 3.55.6.24 1.06.39 1.42.5.6.17 1.14.15 1.56.09.48-.07 1.48-.57 1.68-1.12.21-.55.21-1.02.15-1.12-.06-.1-.23-.16-.48-.27Z"/></svg>
